X:184
T: AM ROSENHUEGEL WAND ICH MICH EMPOR
N: B0670A
O: Europa, Mitteleuropa, Deutschland; Frankreich, Elsass
R: Moral - Lied
M: 4/4
L: 1/16
K: G
D2E2F2 | G6G2A3GF2G2 | A8z2
D2D2D2 | A6A2B3AG2A2 | B8z2
D2E2F2 | G4G4F3GA2B2 | c8z2
E2c2A2 | G2D2B8A4 | G8z2

@@@ Tune index: 2402
